!!!!SEGMENT: pl-kk--kk-i-382--047_ett-caspar--tantum-ergo-sacramentum.krn
!!!cenid: 18xx:1549
!!!COM: Ett, Caspar
!!!COM-rismid: pe59061
!!!CDT: 1788/01/05-1847/05/16
!!!CNT: German
!!!OTL: Tantum ergo sacramentum
!!!PDT:
!!!AGN: Sacred
!!!SMS-siglum: PL-Kk
!!!SMS-shelfmark: Kk.I.382
!!!SMS-shelfwork: 047 W
!!!SMS-variant:
!!!SMS-altvar:
!!!NIFC-rismid: 1001140406
!!!URL-scan: http://repozytorium.nifc.pl/skany/pl-kk-nut--i-382
!!!ONB-nifc: UWAGA: obsada: S (T 1), A (B 1), T 2, B 2; S (T 1): skan 0039; A (B 1): skan 0182; T 2: skan 0110; B 2: skan 0258
**kern	**text	**text	**dynam	**kern	**text	**text	**dynam	**kern	**text	**text	**kern	**text	**text
*part4	*part4	*part4	*part4	*part3	*part3	*part3	*part3	*part2	*part2	*part2	*part1	*part1	*part1
*staff4	*staff4	*staff4	*staff4	*staff3	*staff3	*staff3	*staff3	*staff2	*staff2	*staff2	*staff1	*staff1	*staff1
*I"Basso II	*	*	*	*I"Tenore II	*	*	*	*I"Alto vel Basso I	*	*	*I"Soprano vel Tenore I.	*	*
*I'B 2	*	*	*	*I'T 2	*	*	*	*I'A (B)	*	*	*I'S (T 1)	*	*
*clefF4	*	*	*	*clefG2	*	*	*	*clefF4	*	*	*clefG2	*	*
*	*	*	*	*Trd0c0	*	*	*	*	*	*	*Trd0c0	*	*
*k[]	*	*	*	*k[]	*	*	*	*k[]	*	*	*k[]	*	*
*M4/4	*	*	*	*M4/4	*	*	*	*M4/4	*	*	*M4/4	*	*
*met(c)	*	*	*	*met(c)	*	*	*	*met(c)	*	*	*met(c)	*	*
=1	=1	=1	=1	=1	=1	=1	=1	=1	=1	=1	=1	=1	=1
!LO:TX:Bi:a:t=Tantum	!	!	!	!LO:TX:Bi:a:t=Tantum	!	!	!	!LO:TX:Bi:a:t=Tantum ergo sacramentum	!	!	!LO:TX:Bi:a:t=Tantum	!	!
!LO:TX:a:t=P:problem:napis "Tantum" na pięciolinii przed kluczem	!	!	!	!LO:TX:a:t=P:problem:napis "Tantum" na pięciolinii przed kluczem	!	!	!	!LO:TX:a:i:t=przez C. Ett.	!	!	!LO:TX:a:t=P:problem:napis "Tantum" na pięciolinii przed kluczem	!	!
!LO:TX:i:a:t=C. Ett.	!	!	!	!LO:TX:i:a:t=C. Ett.	!	!	!	!	!	!	!LO:TX:i:a:t=C. Ett.	!	!
2C/	Tan-	et	.	2g/	Tan-	et	.	2E\	Tan-	et	2cc\	Tan-	et
2E\	-tum	an-	.	2cc\	-tum	an-	.	2G\	-tum	an-	2cc\	-tum	an-
=2	=2	=2	=2	=2	=2	=2	=2	=2	=2	=2	=2	=2	=2
!	!	!	!LO:HP:a	!	!	!	!	!	!	!	!	!	!
2F\	er-	-ti-	<	2cc\	er-	-ti-	.	2A\	er-	-ti-	2cc\	er-	-ti-
2E\	-go	-quum	[[	2cc\	-go	-quum	.	2G\	-go	-quum	2cc\	-go	-quum
=3	=3	=3	=3	=3	=3	=3	=3	=3	=3	=3	=3	=3	=3
2D\	sa-	do-	.	2b\	sa-	do-	.	2G\	sa-	do-	2dd\	sa-	do-
2C/	-cra-	-cu-	.	2cc\	-cra-	-cu-	.	2G\	-cra-	-cu-	2ee\	-cra-	-cu-
=4	=4	=4	=4	=4	=4	=4	=4	=4	=4	=4	=4	=4	=4
2BB/	-men-	-men-	.	2dd\	-men-	-men-	.	2G\	-men-	-men-	2ff\	-men-	-men-
2C;>/	-tum	-tum	.	2cc;>\	-tum	-tum	.	2G;>\	-tum,	-tum,	2ee;>\	-tum	-tum
=5	=5	=5	=5	=5	=5	=5	=5	=5	=5	=5	=5	=5	=5
2C/	ve-	no-	.	2cc\	ve-	no-	.	2G\	ve-	no-	2ee\	ve-	no-
2C/	-ne-	-vo	.	2a/	-ne-	-vo	.	2F#X\	-ne-	-vo	2ee\	-ne-	-vo
!LO:LB:g=original	!	!	!	!LO:LB:g=original	!	!	!	!	!	!	!	!	!
=6	=6	=6	=6	=6	=6	=6	=6	=6	=6	=6	=6	=6	=6
2BB/	-re-	ce-	.	2b\	-re-	ce-	.	2G\	-re-	ce-	2dd\	-re-	ce-
2C/	-mur	-dat	.	2a/	-mur	-dat	.	2E\	-mur	-dat	2cc\	-mur	-dat
!	!	!	!	!	!	!	!	!	!	!	!LO:LB:g=original	!	!
=7	=7	=7	=7	=7	=7	=7	=7	=7	=7	=7	=7	=7	=7
!	!	!	!LO:HP:a	!	!	!	!	!	!	!	!	!	!
2D\	cer-	ri-	>	2g/	cer-	ri-	.	2D\	cer-	ri-	2b\	cer-	ri-
2D\	-nu-	-tu-	]	2f#X/	-nu-	-tu-	.	2D\	-nu-	-tu-	2a/	-nu-	-tu-
=8	=8	=8	=8	=8	=8	=8	=8	=8	=8	=8	=8	=8	=8
1GG;>	-i.	-i.	.	1g	-i.	-i.	.	1BB	-i.	-i.	1g	-i.	-i.
!	!	!	!	!	!	!	!	!LO:LB:g=original	!	!	!	!	!
=9:|!	=9:|!	=9:|!	=9:|!	=9:|!	=9:|!	=9:|!	=9:|!	=9:|!	=9:|!	=9:|!	=9:|!	=9:|!	=9:|!
2G\	prae-	.	.	2b\	prae-	.	.	2G\	prae-	.	2b\	prae-	.
2D#X\	-stet	.	.	2b\	-stet	.	.	2A\	-stet	.	2b\	-stet	.
=10	=10	=10	=10	=10	=10	=10	=10	=10	=10	=10	=10	=10	=10
2E\	fi-	.	.	2b\	fi-	.	.	2G\	fi-	.	2ee\	fi-	.
2E\	-des	.	.	2g/	-des	.	.	2E\	-des	.	2b\	-des	.
=11	=11	=11	=11	=11	=11	=11	=11	=11	=11	=11	=11	=11	=11
2Dn/	sup-	.	.	2g#X/	sup-	.	.	2E\	sup-	.	2b\	sup-	.
2C/	-ple-	.	.	2a/	-ple-	.	.	2E\	-ple-	.	2cc\	-ple-	.
=12	=12	=12	=12	=12	=12	=12	=12	=12	=12	=12	=12	=12	=12
2BB/	-men-	.	.	2g#X/	-men-	.	.	2E\	-men-	.	2dd\	-men-	.
2AA;>/	-tum	.	.	2a;>/	-tum	.	.	2E;>\	-tum	.	2cc;>\	-tum	.
!	!	!	!	!LO:LB:g=original	!	!	!	!	!	!	!	!	!
=13	=13	=13	=13	=13	=13	=13	=13	=13	=13	=13	=13	=13	=13
!	!	!	!	!	!	!	!LO:DY:a:rj	!	!	!	!	!	!
2D\	sen-	.	.	2a/	sen-	.	f	2F\	sen-	.	2ff\	sen-	.
2D\	-su-	.	.	2b/	-su-	.	.	2F\	-su-	.	2ff\	-su-	.
!LO:LB:g=original	!	!	!	!	!	!	!	!	!	!	!	!	!
=14	=14	=14	=14	=14	=14	=14	=14	=14	=14	=14	=14	=14	=14
2C/	-um	.	.	2cc\	-um	.	.	2G\	-um	.	2ee\	-um	.
2FF/	de-	.	.	2a/	de-	.	.	2F\	de-	.	2dd\	de-	.
!	!	!	!	!	!	!	!	!	!	!	!LO:LB:g=original	!	!
=15	=15	=15	=15	=15	=15	=15	=15	=15	=15	=15	=15	=15	=15
2GG/	-fe-	.	.	2g/	-fe-	.	.	2E\	-fe-	.	2cc\	-fe-	.
2GG/	-ctu-	.	.	2g/	-ctu-	.	.	2F\	-ctu-	.	2b\	-ctu-	.
=16	=16	=16	=16	=16	=16	=16	=16	=16	=16	=16	=16	=16	=16
1C;>	-i.	.	.	1g;>	-i	.	.	1E	-i.	.	1cc;>	-i.	.
=17||	=17||	=17||	=17||	=17	=17	=17	=17	=17	=17	=17	=17||	=17||	=17||
(>1FF	a-	.	.	0a	A-	.	.	0F	A-	.	0cc	A-	.
=18-	=18	=18	=18	=18	=18	=18	=18	=18	=18	=18	=18	=18	=18
1AA)	.	.	.	.	.	.	.	.	.	.	.	.	.
=19	=19	=19	=19	=19	=19	=19	=19	=19	=19	=19	=19	=19	=19
!LO:TX:b:i:t=4/I0. I893. K. Molęcki wpisałem	!	!	!	!LO:TX:b:i:t=4/I0. I893 K. Molęcki\nwpisałem.	!	!	!	!LO:TX:i:b:t=Wpisałem dnia 4/I0 I893 r. K. Molęcki	!	!	!LO:TX:b:i:t=4/I0. 1893. K. Molęcki wpisałem	!	!
!LO:TX:b:t=P:problem:napis na pięciolinii na otatnią kreską	!	!	!	!LO:TX:b:t=P:problem:napis na pięciolinii na otatnią kreską	!	!	!	!	!	!	!LO:TX:b:t=P:problem:napis na pięciolinii na otatnią kreską	!	!
0C	-men.	.	.	0g	-men.	.	.	0E	-men.	.	0cc	-men.	.
=20	=20	=20	=20	=20	=20	=20	=20	=20	=20	=20	=20	=20	=20
.	.	.	.	.	.	.	.	.	.	.	.	.	.
==	==	==	==	==	==	==	==	==	==	==	==	==	==
*-	*-	*-	*-	*-	*-	*-	*-	*-	*-	*-	*-	*-	*-
!!!system-decoration: [(s1,s2,s3,s4)]
!!!RDF**kern: > = above
!!!RDF**kern: < = below
!!!EED:Mateusz Mrugas
!!!EST:2021-02-10
!!!ENC: Katarzyna Serwa
!!!END: 2021-01-30
